!!!OTL: AM MONTAG DA FAENGT DIE WOCHEN AN
!!!ARE: Europa, Mitteleuropa, Deutschland, Baden, Freiburg; Horben
!!!SCT: E2134
!!!YEM: Copyright 1995, estate of Helmut Schaffrath.
**kern
*ICvox
*Ivox
*M4/4
*k[b-e-a-]
*E-:
{8E-
8G
=1
4B-
4B-
8B-
8e-
8e-
8c
=2
4B-
4B-
4B-
8r}
{8G
=3
8G
8F
8F
8F
8F
8c
8B-
8A-
=4
4G
4G
4G
4r}
=5
{4.F
8G
4A-
4F
=6
4.G
8A-
4B-
4r}
=7
{4.e-
8f
4g
4g
=8
2f
4e-}
==
!!!AGN: geistliches Lied, Curiosum, Moral
!!!ONB: ESAC (Essen Associative Code) Database: ERK3
!!!AMT: simple quadruple
!!!AIN: vox
!!!EED: Helmut Schaffrath
!!!EEV: 1.0
*-
